!!!OTL@@DE: Wiegenlied
!!!COM: Weber, Carl Maria von
!!!ODT: 1810
!!!OMD: Andante con moto
!!!LYR: Hiemer, Franz, Carl
!!!LDT: 1810
!!!OCL: Erk, Ludwig
!!!GCO: Deutscher Liederschatz, Band 1
**kern	**kern	**kern
*staff3	*staff2	*staff1
*Ipiano	*Ipiano	*Ivox
=1-	=1-	=1-
*clefF4	*clefG2	*clefG2
*k[]	*k[]	*k[]
*C:	*C:	*C:
*M3/8	*M3/8	*M3/8
*MM110	*MM110	*MM110
8C\ 8G\L	8c/ 8e/L	8g/
8C\ 8G\	8c/ 8e/	8e/
8C\ 8G\J	8c/ 8e/J	8f/
=2	=2	=2
8C\ 8G\L	8c/ 8e/L	8.g/
8C\ 8G\	8c/ 8e/	.
.	.	16dd\
8C\ 8G\J	8c/ 8e/J	8cc\
=3	=3	=3
8C\ 8G\L	8B/ 8f/L	8b\
8C\ 8G\	8B/ 8f/	8a/
8C\ 8G\J	8B/ 8f/J	8b\
=4	=4	=4
8C\ 8G\L	8c/ 8e/L	4cc\
8C\ 8G\	8c/ 8e/	.
8C\ 8G\J	8c/ 8e/J	8r
=5	=5	=5
8D#\ 8A\L	8B/ 8f#/L	8.b\
8D#\ 8A\	8B/ 8f#/	.
.	.	16b\
8D#\ 8A\J	8B/ 8f#/J	8b\
=6	=6	=6
8E\ 8G\L	8B/ 8g/L	8cc\
8E\ 8G\	8B/ 8g/	8b\
8E\ 8G\J	8B/ 8g/J	(16ee\LL
.	.	16dd\JJ)
=7	=7	=7
8Dn\ 8A\L	8c/ 8f#/L	8dd\
8D\ 8A\	8c/ 8f#/	8cc\
8D\ 8A\J	8c/ 8f#/J	(16a/LL
.	.	16b/JJ)
=8	=8	=8
8GG/ 8G/L	8B/ 8g/L	4g/
8GG/ 8G/	8B/ 8g/	.
8GG/ 8G/J	8B/ 8g/J	8r
=9	=9	=9
8C\ 8G\L	8c/ 8e/L	8.g/
8C\ 8G\	8c/ 8e/	.
.	.	16g/
8C\ 8G\J	8c/ 8e/J	8g/
=10	=10	=10
8D\ 8G\L	8B/ 8f/L	8a/
8D\ 8G\	8B/ 8f/	8g/
8D\ 8G\J	8B/ 8f/J	8g/
=11	=11	=11
8E\ 8G\L	8B-/ 8c/ 8g/L	8g/
8E\ 8G\	8B-/ 8c/ 8g/	8g/
8E\ 8G\J	8B-/ 8c/ 8g/J	(16g/LL
.	.	16cc/JJ)
=12	=12	=12
4F\ 4A\	4A/ 4c/ 4f/	4.cc\
8r	8r	.
=13	=13	=13
8GG/ 8D/L	8Bn/ 8f/L	8b\
8GG/ 8D/	8B/ 8f/	8a/
8GG/ 8D/J	8B/ 8f/J	8b\
=14	=14	=14
8GG/ 8E/L	8c/ 8e/L	8cc\
8GG/ 8E/	8c/ 8e/	8e/
8GG/ 8E/J	8c/ 8e/J	(16a/LL
.	.	16g/JJ)
=15	=15	=15
8GG/ 8F/L	8B/ 8d/L	8g/
8GG/ 8F/	8B/ 8d/	8f/
8GG/ 8F/J	8B/ 8d/J	(16d/LL
.	.	16e/JJ)
=16	=16	=16
4C\ 4E\	4G/ 4c/	4c/
8r	8r	8r
==	==	==
*-	*-	*-
!!!ENC: Craig Stuart Sapp
!!!END: 2004/05/27/
!!!EFL: 089/651
